source/images/links/coding/nowcoder.svg

<svg width="128" height="128" xmlns="http://www.w3.org/2000/svg" fill="none">

 <g>
  <title>Layer 1</title>
  <path id="svg_1" fill="#FF4F02" d="m40.2393,52.5128c0.5453,0.9606 0.2085,2.1814 -0.7521,2.7266l-15.3602,8.7179l15.324,8.2833c0.9717,0.5252 1.3336,1.7387 0.8084,2.7104c-0.5253,0.9717 -1.7388,1.3337 -2.7105,0.8084l-16.912,-9.1416c-2.0733,-1.1207 -2.104,-4.0848 -0.0542,-5.2482l16.9301,-9.609c0.9606,-0.5452 2.1813,-0.2084 2.7265,0.7522z" clip-rule="evenodd" fill-rule="evenodd"/>
  <path id="svg_2" fill="#FF4F02" d="m87.2606,52.5128c-0.5452,0.9606 -0.2085,2.1814 0.7522,2.7266l15.3602,8.7179l-15.3241,8.2833c-0.9717,0.5252 -1.3336,1.7387 -0.8083,2.7104c0.5252,0.9717 1.7387,1.3337 2.7104,0.8084l16.912,-9.1416c2.073,-1.1207 2.104,-4.0848 0.054,-5.2482l-16.9298,-9.609c-0.9606,-0.5452 -2.1814,-0.2084 -2.7266,0.7522z" clip-rule="evenodd" fill-rule="evenodd"/>
  <path id="svg_3" fill="#FF4F02" d="m82.9142,53.5858c0.781,0.781 0.781,2.0474 0,2.8284l-17.9143,17.9142c-0.375,0.3751 -0.8856,0.5858 -1.416,0.5858c-1.9982,0 -1.9982,0 -1.9982,0c0,0 0,0 0,-1.9981c0,-0.5305 0.2107,-1.041 0.5858,-1.4161l17.9142,-17.9142c0.7811,-0.7811 2.0474,-0.7811 2.8285,0z" clip-rule="evenodd" fill-rule="evenodd"/>
  <path id="svg_4" fill="white" d="m37.7314,46l-9.5,6c0,0 -7.5,-11 5,-20c-2.5,9.5 4.5,14 4.5,14z"/>
  <path id="svg_5" fill="white" d="m99.5,52l-9.5,-6c0,0 7,-4.5 4.5,-14c12.5,9 5,20 5,20z"/>
  <path id="svg_6" fill="white" d="m52,40c-1.1045,0 -2,0.8954 -2,2l0,1l-4,0c-1.1045,0 -2,0.8954 -2,2l0,44c0,1.1046 0.8955,2 2,2l36,0c1.1046,0 2,-0.8954 2,-2l0,-24c0,-1.1046 -0.8954,-2 -2,-2c-1.1045,0 -2,0.8954 -2,2l0,22l-32,0l0,-40l2,0l0,1c0,1.1046 0.8955,2 2,2c1.1046,0 2,-0.8954 2,-2l0,-1l4,0l0,1c0,1.1046 0.8955,2 2,2c1.1046,0 2,-0.8954 2,-2l0,-1l4,0l0,1c0,1.1046 0.8955,2 2,2c1.1046,0 2,-0.8954 2,-2l0,-1l4,0l0,1c0,1.1046 0.8955,2 2,2c1.1046,0 2,-0.8954 2,-2l0,-1l2,0l0,1c0,1.1046 0.8955,2 2,2c1.1046,0 2,-0.8954 2,-2l0,-3c0,-1.1046 -0.8954,-2 -2,-2l-4,0l0,-1c0,-1.1046 -0.8954,-2 -2,-2c-1.1045,0 -2,0.8954 -2,2l0,1l-4,0l0,-1c0,-1.1046 -0.8954,-2 -2,-2c-1.1045,0 -2,0.8954 -2,2l0,1l-4,0l0,-1c0,-1.1046 -0.8954,-2 -2,-2c-1.1045,0 -2,0.8954 -2,2l0,1l-4,0l0,-1c0,-1.1046 -0.8954,-2 -2,-2z"/>
  <path id="svg_7" fill="white" d="m54,57c-1.1045,0 -2,0.8954 -2,2c0,1.1046 0.8955,2 2,2l12,0c1.1046,0 2,-0.8954 2,-2c0,-1.1046 -0.8954,-2 -2,-2l-12,0z"/>
  <path id="svg_8" fill="white" d="m54,66c-1.1045,0 -2,0.8954 -2,2c0,1.1046 0.8955,2 2,2l5,0c1.1046,0 2,-0.8954 2,-2c0,-1.1046 -0.8954,-2 -2,-2l-5,0z"/>
  <path id="svg_9" fill="white" d="m52,77c0,-1.1046 0.8955,-2 2,-2l3,0c1.1046,0 2,0.8954 2,2c0,1.1046 -0.8954,2 -2,2l-3,0c-1.1045,0 -2,-0.8954 -2,-2z"/>
 </g>
</svg>

<svg width="128" height="128" viewBox="0 0 128 128" fill="none" xmlns="http://www.w3.org/2000/svg">
 
<path fill-rule="evenodd" clip-rule="evenodd" d="M40.2393 52.5128C40.7846 53.4734 40.4478 54.6942 39.4872 55.2394L24.127 63.9573L39.451 72.2406C40.4227 72.7658 40.7846 73.9793 40.2594 74.951C39.7341 75.9227 38.5206 76.2847 37.5489 75.7594L20.6369 66.6178C18.5636 65.4971 18.5329 62.533 20.5827 61.3696L37.5128 51.7606C38.4734 51.2154 39.6941 51.5522 40.2393 52.5128Z" fill="#FF4F02"/>
<path fill-rule="evenodd" clip-rule="evenodd" d="M87.2606 52.5128C86.7154 53.4734 87.0521 54.6942 88.0128 55.2394L103.373 63.9573L88.0489 72.2406C87.0772 72.7658 86.7153 73.9793 87.2406 74.951C87.7658 75.9227 88.9793 76.2847 89.951 75.7594L106.863 66.6178C108.936 65.4971 108.967 62.533 106.917 61.3696L89.9872 51.7606C89.0266 51.2154 87.8058 51.5522 87.2606 52.5128Z" fill="#FF4F02"/>
<path fill-rule="evenodd" clip-rule="evenodd" d="M82.9142 53.5858C83.6952 54.3668 83.6952 55.6332 82.9142 56.4142L64.9999 74.3284C64.6249 74.7035 64.1143 74.9142 63.5839 74.9142C61.5857 74.9142 61.5857 74.9142 61.5857 74.9142C61.5857 74.9142 61.5857 74.9142 61.5857 72.9161C61.5857 72.3856 61.7964 71.8751 62.1715 71.5L80.0857 53.5858C80.8668 52.8047 82.1331 52.8047 82.9142 53.5858Z" fill="#FF4F02"/>
<path d="M37.7314 46L28.2314 52C28.2314 52 20.7314 41 33.2314 32C30.7314 41.5 37.7314 46 37.7314 46Z" fill="white"/>
<path d="M99.5 52L90 46C90 46 97 41.5 94.5 32C107 41 99.5 52 99.5 52Z" fill="white"/>
<path d="M52 40C50.8955 40 50 40.8954 50 42V43H46C44.8955 43 44 43.8954 44 45V89C44 90.1046 44.8955 91 46 91H82C83.1046 91 84 90.1046 84 89V65C84 63.8954 83.1046 63 82 63C80.8955 63 80 63.8954 80 65V87H48V47H50V48C50 49.1046 50.8955 50 52 50C53.1046 50 54 49.1046 54 48V47H58V48C58 49.1046 58.8955 50 60 50C61.1046 50 62 49.1046 62 48V47H66V48C66 49.1046 66.8955 50 68 50C69.1046 50 70 49.1046 70 48V47H74V48C74 49.1046 74.8955 50 76 50C77.1046 50 78 49.1046 78 48V47H80V48C80 49.1046 80.8955 50 82 50C83.1046 50 84 49.1046 84 48V45C84 43.8954 83.1046 43 82 43H78V42C78 40.8954 77.1046 40 76 40C74.8955 40 74 40.8954 74 42V43H70V42C70 40.8954 69.1046 40 68 40C66.8955 40 66 40.8954 66 42V43H62V42C62 40.8954 61.1046 40 60 40C58.8955 40 58 40.8954 58 42V43H54V42C54 40.8954 53.1046 40 52 40Z" fill="white"/>
<path d="M54 57C52.8955 57 52 57.8954 52 59C52 60.1046 52.8955 61 54 61H66C67.1046 61 68 60.1046 68 59C68 57.8954 67.1046 57 66 57H54Z" fill="white"/>
<path d="M54 66C52.8955 66 52 66.8954 52 68C52 69.1046 52.8955 70 54 70H59C60.1046 70 61 69.1046 61 68C61 66.8954 60.1046 66 59 66H54Z" fill="white"/>
<path d="M52 77C52 75.8954 52.8955 75 54 75H57C58.1046 75 59 75.8954 59 77C59 78.1046 58.1046 79 57 79H54C52.8955 79 52 78.1046 52 77Z" fill="white"/>
</svg>
